icons/sd-card-line.svg

<svg xmlns="http://www.w3.org/2000/svg" width="24" height="24" fill="none"><g clip-path="url(#a)"><g><path fill="#121212" d="M6 7.828V20H18V4H9.828L6 7.828ZM4.293 6.708L9 2H19C19.2652 2 19.5196 2.10536 19.7071 2.29289C19.8946 2.48043 20 2.73478 20 3V21C20 21.2652 19.8946 21.5196 19.7071 21.7071C19.5196 21.8946 19.2652 22 19 22H5C4.73478 22 4.48043 21.8946 4.29289 21.7071C4.10536 21.5196 4 21.2652 4 21V7.414C4.00006 7.14881 4.10545 6.89449 4.293 6.707V6.708ZM15 5H17V9H15V5ZM12 5H14V9H12V5ZM9 6H11V9H9V6Z"/></g></g><defs><clipPath id="a"><rect width="24" height="24" fill="white"/></clipPath></defs></svg>

<svg width="24" height="24" fill="none" xmlns="http://www.w3.org/2000/svg"><g clip-path="url(#a)"><path d="M6 7.828V20h12V4H9.828L6 7.828Zm-1.707-1.12L9 2h10a1 1 0 0 1 1 1v18a1 1 0 0 1-1 1H5a1 1 0 0 1-1-1V7.414a1 1 0 0 1 .293-.707v.001ZM15 5h2v4h-2V5Zm-3 0h2v4h-2V5ZM9 6h2v3H9V6Z" /></g><defs><clipPath id="a"><path fill="#fff" d="M0 0h24v24H0z"/></clipPath></defs></svg>
